assets/Counterclockwise arrows button/Flat/counterclockwise_arrows_button_flat.svg

<svg width="32" height="32" viewBox="0 0 32 32" fill="none" xmlns="http://www.w3.org/2000/svg">
<path d="M2 6C2 3.79086 3.79086 2 6 2H26C28.2091 2 30 3.79086 30 6V26C30 28.2091 28.2091 30 26 30H6C3.79086 30 2 28.2091 2 26V6Z" fill="#00A6ED"/>
<path d="M7.94621 14.3589C7.94818 14.7419 8.25815 15.0518 8.64112 15.0538L14.7803 15.0854C15.4043 15.0887 15.7191 14.3343 15.2778 13.893L13.4049 12.0201C13.294 11.9092 13.3113 11.7244 13.446 11.6442C14.1935 11.1992 15.0669 10.9436 16 10.9436C18.2766 10.9436 20.1978 12.4652 20.8023 14.5468C20.8686 14.7752 21.0709 14.9436 21.3087 14.9436H23.3719C23.6726 14.9436 23.9064 14.6793 23.8481 14.3844C23.1227 10.7125 19.8847 7.94363 16 7.94363C14.2092 7.94363 12.5558 8.53205 11.2226 9.5261C11.121 9.60188 10.9787 9.59388 10.889 9.50423L9.10701 7.7222C8.66574 7.28092 7.91134 7.59568 7.91456 8.21973L7.94621 14.3589Z" fill="white"/>
<path d="M22.692 24.2778L20.9291 22.5148C20.8413 22.4271 20.7027 22.4173 20.6012 22.4888C19.2998 23.4054 17.7127 23.9436 16 23.9436C12.1153 23.9436 8.87727 21.1748 8.15185 17.5029C8.09357 17.2079 8.3274 16.9436 8.62809 16.9436H10.6913C10.9291 16.9436 11.1314 17.1121 11.1977 17.3405C11.8021 19.4221 13.7234 20.9436 16 20.9436C16.847 20.9436 17.6448 20.733 18.3439 20.3613C18.4864 20.2856 18.5088 20.0945 18.3946 19.9803L16.5212 18.107C16.0799 17.6657 16.3947 16.9113 17.0188 16.9145L23.1579 16.9462C23.5409 16.9481 23.8509 17.2581 23.8528 17.6411L23.8845 23.7802C23.8877 24.4043 23.1333 24.719 22.692 24.2778Z" fill="white"/>
</svg>

<svg xmlns="http://www.w3.org/2000/svg" width="32" height="32" fill="none"><path fill="#00A6ED" d="M2 6a4 4 0 0 1 4-4h20a4 4 0 0 1 4 4v20a4 4 0 0 1-4 4H6a4 4 0 0 1-4-4V6Z"/><path fill="#fff" d="M7.946 14.359a.699.699 0 0 0 .695.695l6.14.031a.698.698 0 0 0 .497-1.192l-1.873-1.873a.239.239 0 0 1 .041-.376 5.002 5.002 0 0 1 7.356 2.903.537.537 0 0 0 .507.397h2.063c.3 0 .534-.265.476-.56a8.003 8.003 0 0 0-12.625-4.858.256.256 0 0 1-.334-.022L9.107 7.722a.699.699 0 0 0-1.192.498l.031 6.139ZM22.692 24.278l-1.763-1.763a.256.256 0 0 0-.328-.026 8.003 8.003 0 0 1-12.45-4.986.474.474 0 0 1 .477-.56h2.063c.238 0 .44.17.507.397a5.002 5.002 0 0 0 7.146 3.021.238.238 0 0 0 .05-.38l-1.873-1.874a.699.699 0 0 1 .498-1.192l6.139.031a.698.698 0 0 1 .695.695l.031 6.14a.699.699 0 0 1-1.192.497Z"/></svg>
